svg/about/mailb.svg

<svg width="28" height="21" viewBox="0 0 28 21" fill="none" xmlns="http://www.w3.org/2000/svg">
<path d="M14 11.3318L0.0175 0H27.9837L14 11.3318ZM7.67083 9.20617L0 2.989V17.5735L7.67083 9.20617ZM20.3292 9.20617L28 17.5735V2.989L20.3292 9.20617ZM18.5127 10.6773L14 14.3348L9.48733 10.6773L0.0256667 21H27.9743L18.5127 10.6773Z" fill="black"/>
</svg>

<svg width="28" height="21" fill="none" xmlns="http://www.w3.org/2000/svg"><path d="M14 11.33L.02 0h27.96L14 11.33zM7.67 9.21L0 2.99v14.58l7.67-8.36zm12.66 0L28 17.57V3L20.33 9.2zm-1.82 1.47L14 14.33l-4.51-3.65L.03 21h27.94l-9.46-10.32z" fill="#000"/></svg>
